hosted/assets/icon/widgets/dark-mode/full-circular-gauge.svg

<svg width="50" height="50" viewBox="0 0 50 50" fill="none" xmlns="http://www.w3.org/2000/svg">
<path fill-rule="evenodd" clip-rule="evenodd" d="M25 46C36.598 46 46 36.598 46 25C46 13.402 36.598 4 25 4C13.402 4 4 13.402 4 25C4 36.598 13.402 46 25 46ZM25 48C37.7025 48 48 37.7025 48 25C48 12.2975 37.7025 2 25 2C12.2975 2 2 12.2975 2 25C2 37.7025 12.2975 48 25 48Z" fill="white"/>
<rect x="22" y="25" width="16" height="6" rx="3" transform="rotate(-90 22 25)" fill="#C89000"/>
<path fill-rule="evenodd" clip-rule="evenodd" d="M25 26C22.7909 26 21 24.2091 21 22L21 12C21 9.79086 22.7909 8 25 8C27.2091 8 29 9.79086 29 12L29 22C29 24.2091 27.2091 26 25 26ZM23 22C23 23.1046 23.8954 24 25 24C26.1046 24 27 23.1046 27 22L27 12C27 10.8954 26.1046 10 25 10C23.8954 10 23 10.8954 23 12L23 22Z" fill="white"/>
</svg>

<svg width="50" height="50" fill="none" xmlns="http://www.w3.org/2000/svg"><path fill-rule="evenodd" clip-rule="evenodd" d="M25 46c11.598 0 21-9.402 21-21S36.598 4 25 4 4 13.402 4 25s9.402 21 21 21zm0 2c12.703 0 23-10.297 23-23S37.703 2 25 2 2 12.297 2 25s10.297 23 23 23z" fill="#fff"/><rect x="22" y="25" width="16" height="6" rx="3" transform="rotate(-90 22 25)" fill="#C89000"/><path fill-rule="evenodd" clip-rule="evenodd" d="M25 26a4 4 0 01-4-4V12a4 4 0 018 0v10a4 4 0 01-4 4zm-2-4a2 2 0 104 0V12a2 2 0 10-4 0v10z" fill="#fff"/></svg>
